src/assets/icons/months,simple,june-6.svg

<svg width="48" height="48" viewBox="0 0 48 48" fill="none" xmlns="http://www.w3.org/2000/svg">
<rect opacity="0.2" x="5" y="5" width="38" height="38" rx="4" fill="black"/>
<path d="M5 13C5 9.22876 5 7.34315 6.17157 6.17157C7.34315 5 9.22876 5 13 5H35C38.7712 5 40.6569 5 41.8284 6.17157C43 7.34315 43 9.22876 43 13V15H5V13Z" fill="black"/>
<path d="M13.3892 23.3636V31.4773C13.3835 32.5966 12.8835 33.1875 11.9744 33.1875C11.1165 33.1875 10.5597 32.6534 10.5426 31.7273H8.09375C8.08239 34.0511 9.74148 35.1591 11.8494 35.1591C14.2074 35.1591 15.8153 33.733 15.821 31.4773V23.3636H13.3892ZM25.0426 23.3636V30.7102C25.0426 32.0398 24.1108 33 22.679 33C21.2528 33 20.3153 32.0398 20.3153 30.7102V23.3636H17.8551V30.9205C17.8551 33.4659 19.7756 35.1648 22.679 35.1648C25.571 35.1648 27.5028 33.4659 27.5028 30.9205V23.3636H25.0426ZM39.2599 23.3636H36.8111V30.6818H36.7088L31.6861 23.3636H29.527V35H31.9872V27.6761H32.0724L37.1349 35H39.2599V23.3636Z" fill="black"/>
</svg>

<svg xmlns="http://www.w3.org/2000/svg" width="48" height="48" fill="none" viewBox="0 0 48 48">
  <rect width="38" height="38" x="5" y="5" fill="#000" opacity=".2" rx="4"/>
  <path fill="#000" d="M5 13c0-3.771 0-5.657 1.172-6.828C7.343 5 9.229 5 13 5h22c3.771 0 5.657 0 6.828 1.172C43 7.343 43 9.229 43 13v2H5v-2zM13.39 23.364v8.113c-.007 1.12-.507 1.71-1.416 1.71-.857 0-1.414-.534-1.431-1.46h-2.45c-.01 2.324 1.648 3.432 3.756 3.432 2.358 0 3.966-1.426 3.972-3.682v-8.113h-2.432zm11.653 0v7.346c0 1.33-.932 2.29-2.364 2.29-1.426 0-2.364-.96-2.364-2.29v-7.346h-2.46v7.556c0 2.546 1.92 4.245 4.824 4.245 2.892 0 4.824-1.7 4.824-4.244v-7.557h-2.46zm14.217 0H36.81v7.318h-.102l-5.023-7.318h-2.159V35h2.46v-7.324h.085L37.135 35h2.125V23.364z"/>
</svg>
